public/img/old-svg/refresh.svg

<svg width="17" height="15" viewBox="0 0 17 15" fill="none" xmlns="http://www.w3.org/2000/svg">
<path d="M9.65432 0.154297C5.60501 0.154297 2.31213 3.45065 2.31213 7.49997V7.52425L0.858261 5.33478C0.715997 5.11965 0.42453 5.06066 0.209399 5.20293C-0.0057316 5.34519 -0.064719 5.63666 0.0775447 5.85179L2.18721 9.0267C2.26355 9.1412 2.38499 9.21407 2.52032 9.23142C2.54114 9.23489 2.55849 9.23489 2.5793 9.23489C2.69381 9.23489 2.80485 9.19325 2.89159 9.11345L5.82361 6.47289C6.01445 6.2994 6.0318 6.00446 5.85831 5.81015C5.68482 5.61931 5.38988 5.60196 5.19557 5.77545L3.24899 7.53466V7.49997C3.24899 3.96419 6.12202 1.09116 9.65432 1.09116C13.1866 1.09116 16.0631 3.96419 16.0631 7.49997C16.0631 11.0357 13.1901 13.9088 9.65779 13.9088C7.94716 13.9088 6.33715 13.2426 5.12964 12.0316C4.94574 11.8477 4.6508 11.8477 4.4669 12.0316C4.283 12.2155 4.283 12.5104 4.4669 12.6943C5.85484 14.0823 7.69733 14.8456 9.65779 14.8456C13.7036 14.8456 17 11.5527 17 7.49997C17 3.44718 13.7036 0.154297 9.65432 0.154297Z" fill="#EC824A"/>
</svg>

<svg width="17" height="15" viewBox="0 0 17 15" fill="none" xmlns="http://www.w3.org/2000/svg"><path d="M9.654.154C5.605.154 2.312 3.451 2.312 7.5v.024L.858 5.334a.469.469 0 00-.78.518l2.11 3.175a.47.47 0 00.332.204c.021.004.038.004.06.004a.459.459 0 00.312-.122l2.932-2.64a.47.47 0 00.034-.663.47.47 0 00-.662-.035l-1.947 1.76V7.5a6.413 6.413 0 016.405-6.409 6.416 6.416 0 016.41 6.409 6.413 6.413 0 01-6.406 6.409c-1.71 0-3.32-.666-4.528-1.877a.467.467 0 00-.663 0 .467.467 0 000 .662 7.291 7.291 0 005.19 2.152C13.705 14.846 17 11.553 17 7.5S13.704.154 9.654.154z" fill="#EC824A"/></svg>
